X: 40363
T: Tom Doherty's
R: reel
M: 4/4
K: Bdorian
|:f2df Bfdf|fefg afga|f2df Bfdf|ecAc eaga|
f2df Bfdf|fefg afga|bgaf gefa|1 ecAc eaga:|2 ecAc efga||
|:bB~B2 fB~B2|bB~B2 f2ga|bB~B2 fBdf|ecAc efga|
bB~B2 fB~B2|bB~B2 f2ga|bgaf gefa|1 ecAc efga:|2 ecAc eaga||

